!!!AGN: Motet
!!!SCT: Slim (1972)
!!!voices: 4
!!!COM: Anonymous
!!!OTL: Ecce tu pulcra es
**kern	**kern	**kern	**kern
*part4	*part3	*part2	*part1
*staff4	*staff3	*staff2	*staff1
*I"Bassus	*I"Tenor	*I"Altus	*I"Superius
*I'B	*I'T	*I'A	*I'S
*clefF4	*clefGv2	*clefG2	*clefG2
*k[b-]	*k[b-]	*k[b-]	*k[b-]
*F:	*F:	*F:	*F:
*M2/1	*M2/1	*M2/1	*M2/1
*met(C|)	*met(C|)	*met(C|)	*met(C|)
!!section: Prima pars: Ecce tu pulcra es
!!!OMD: Prima pars: Ecce tu pulcra es
0r	1D	0r	0r
.	2D	.	.
.	2D	.	.
=1	=1	=1	=1
0r	1F	0r	0r
.	1F	.	.
=2	=2	=2	=2
0r	1.G	0r	1d
.	.	.	2d
.	2G	.	2d
=3	=3	=3	=3
0r	1d	0r	1f
.	1d	.	1f
=4	=4	=4	=4
0r	0c	0r	1.g
.	.	.	2g
=5	=5	=5	=5
0r	2B-y	1d	1dd
.	1d	.	.
.	.	2d	1dd
.	4c	2d	.
.	4B-y	.	.
=6	=6	=6	=6
0r	2.A	1f	0cc
.	4G	.	.
.	1A	1f	.
=7	=7	=7	=7
0r	2.G	1.g	2b-y
.	.	.	1dd
.	4A	.	.
.	2.B-y	.	.
.	.	2g	4cc
.	8AL	.	4b-y
.	8GJ	.	.
=8	=8	=8	=8
1D	1F	1dd	2a
.	.	.	2b-y
2D	1r	1dd	2a
2D	.	.	2b-y
=9	=9	=9	=9
1F	1f	0cc	2a
.	.	.	1b-y
1F	2f	.	.
.	2f	.	2a
=10	=10	=10	=10
1.G	1d	2b-y	1.b-y
.	.	1dd	.
.	1B-y	.	.
2G	.	4cc	4a
.	.	4b-y	4g
=11	=11	=11	=11
1d	0r	2a	2f
.	.	2b-y	1ff
1d	.	2a	.
.	.	[2b-y	4ee
.	.	.	4dd
=12	=12	=12	=12
0c	0r	2b-]	2ee
.	.	4a	4dd
.	.	4g	4cc
.	.	1a	1ee
=13	=13	=13	=13
[0B-y	0r	2.b-y	2dd
.	.	.	1b-y
.	.	8aL	.
.	.	8gJ	.
.	.	2f	.
.	.	2g	4a
.	.	.	4g
=14	=14	=14	=14
0B-]	0r	1d	2f
.	.	.	2g
.	.	1r	1d
=15	=15	=15	=15
0r	0B-y	1f	1r
.	.	1g	1d
=16	=16	=16	=16
0r	1c	1g	1e
.	1c	[1a	1e
=17	=17	=17	=17
0r	1.d	2a]	1.f
.	.	4g	.
.	.	4f	.
.	.	[1b-y	.
.	4c	.	4e
.	4B-y	.	4d
=18	=18	=18	=18
0r	1.e-X	2b-]	2g
.	.	2a	4a
.	.	.	4b-y
.	.	2g	2cc
.	2d	2f	[2b-y
=19	=19	=19	=19
2r	1c	2e	2b-]
2F	.	2f	1a
2G	1B-y	[1d	.
2G	.	.	[2g
=20	=20	=20	=20
0D	0A	1d]	2g]
.	.	.	4f#i
.	.	.	4e
.	.	[1d	1f#X
=21	=21	=21	=21
0r	2r	1d]	2r
.	2B-y	.	2g
.	2c	2e	2a
.	2d	2f	2b-y
=22	=22	=22	=22
2r	1.e-i	1.g	1.cc
2C	.	.	.
2C	.	.	.
2C	2d	2f	2b-y
=23	=23	=23	=23
2C	1c	1e	2a
2C	.	.	1g
2D	1A	1d	.
2D	.	.	2f#i
=24	=24	=24	=24
0G	1G	1d	2g
.	.	.	2.b-y
.	1r	2r	.
.	.	.	4a
.	.	[2b-y	4g
.	.	.	4f
=25	=25	=25	=25
1r	1G	4b-]	2g
.	.	4a	.
.	.	4g	2d
.	.	4f	.
1G	[1B-y	2g	1d
.	.	2d	.
=26	=26	=26	=26
1G	1B-]	2d	0r
.	.	2.e	.
1A	1c	.	.
.	.	4c	.
.	.	[2f	.
=27	=27	=27	=27
2.B-y	0d	2f]	0r
.	.	2g	.
8AL	.	.	.
8GJ	.	.	.
2F	.	2a	.
[2G	.	[2b-y	.
=28	=28	=28	=28
2G]	1e	2b-]	0r
4F	.	4a	.
4E	.	4g	.
2F	2d	2a	.
2G	[2e	2g	.
=29	=29	=29	=29
2D	4e]	2f	0r
.	4d	.	.
2F	1d	2d	.
2G	.	1e	.
2A	2c#i	.	.
=30	=30	=30	=30
0D	0d	2r	0dd
.	.	4d	.
.	.	4e	.
.	.	4f	.
.	.	4g	.
.	.	4a	.
.	.	4b-y	.
=31	=31	=31	=31
0r	0r	2.cc	1ee
.	.	8b-yL	.
.	.	8aJ	.
.	.	2.b-y	2.dd
.	.	4a	4cc
=32	=32	=32	=32
0r	0r	2g	2b-y
.	.	2f	2a
.	.	2g	4b-y
.	.	.	4g
.	.	[2a	[2cc
=33	=33	=33	=33
0r	0r	4a]	4cc]
.	.	4g	4b-y
.	.	1g	4a
.	.	.	4g
.	.	.	1a
.	.	2f#i	.
=34	=34	=34	=34
1G	1G	1.g	0g
[1G	[1B-y	.	.
.	.	4f	.
.	.	4e	.
=35	=35	=35	=35
2G]	2B-]	[0d	0r
4F	4A	.	.
4E	4G	.	.
2F	2A	.	.
2G	2B-y	.	.
=36	=36	=36	=36
2D	2A	0d]	0r
2G	2B-y	.	.
2F	2A	.	.
[2G	[2B-y	.	.
=37	=37	=37	=37
4G]	4B-]	0r	0r
4F	4A	.	.
4E	1d	.	.
4D	.	.	.
1E	.	.	.
.	2c#i	.	.
=38	=38	=38	=38
1D	1d	1f	1a
1r	1r	[1b-y	[1dd
=39	=39	=39	=39
0r	0r	2b-]	2dd]
.	.	2a	2cc
.	.	2g	2b-y
.	.	2f	2a
=40	=40	=40	=40
1G	1d	1g	1g
[1A	[1f	1r	1r
=41	=41	=41	=41
2A]	2f]	0r	0r
2G	2e	.	.
2F	2d	.	.
2E	2c	.	.
=42	=42	=42	=42
[0D	[0d	2r	2r
.	.	1f	1a
.	.	[2b-y	[2dd
=43	=43	=43	=43
0D]	0d]	2b-]	2dd]
.	.	2a	2cc
.	.	2g	2b-y
.	.	2f	2a
=44	=44	=44	=44
1r	1r	1g	0g
1G	1B-y	1r	.
=45	=45	=45	=45
2F	2A	1dd	0r
1G	1B-y	.	.
.	.	2dd	.
4F	4A	2dd	.
4E	4G	.	.
=46	=46	=46	=46
2F	2A	1dd	0r
2G	2B-y	.	.
2D	2A	2.dd	.
2G	2B-y	.	.
.	.	4b-y	.
=47	=47	=47	=47
2F	2A	2cc	0r
1B-y	2B-y	2dd	.
.	1F	1cc	.
2A	.	.	.
=48	=48	=48	=48
0B-y	0f	2.b-y	1dd
.	.	8aL	.
.	.	8gJ	.
.	.	4f	2dd
.	.	4e	.
.	.	4d	2dd
.	.	4c	.
=49	=49	=49	=49
0r	0r	4B-y	1dd
.	.	4c	.
.	.	4d	.
.	.	4e	.
.	.	4f	2.dd
.	.	4g	.
.	.	4a	.
.	.	4b-y	4b-y
=50	=50	=50	=50
0r	0r	4a	2cc
.	.	4f	.
.	.	1b-y	2dd
.	.	.	1cc
.	.	2a	.
=51	=51	=51	=51
0r	0r	2b-y	2b-y
.	.	2g	2.dd
.	.	2.dd	.
.	.	.	4cc
.	.	.	4b-y
.	.	4cc	4a
=52	=52	=52	=52
0r	0r	4b-y	2g
.	.	4a	.
.	.	2g	2.dd
.	.	2.dd	.
.	.	.	4cc
.	.	.	4b-y
.	.	4cc	4a
=53	=53	=53	=53
0r	0r	4b-y	4g
.	.	4a	4f
.	.	4g	4e
.	.	4f	4d
.	.	4e	4c
.	.	4d	4d
.	.	4c	4e
.	.	4d	4f
=54	=54	=54	=54
0r	0r	4e	4g
.	.	4f	4a
.	.	4g	4b-y
.	.	4a	4cc
.	.	4b-y	4dd
.	.	4g	4b-y
.	.	[2a	[2cc
=55	=55	=55	=55
0r	0r	2a]	4cc]
.	.	.	4g
.	.	1g	2b-y
.	.	.	1a
.	.	2f#i	.
=56	=56	=56	=56
0r	0r	1g	1g
.	.	1r	1r
=57	=57	=57	=57
1B-y	1f	1b-y	1dd
[1B-y	[1f	[1b-y	[1dd
=58	=58	=58	=58
2B-]	2f]	2b-]	2dd]
2B-y	2f	2b-y	2dd
[1B-y	[1f	[1b-y	[1dd
=59	=59	=59	=59
1B-]	1f]	1b-]	1dd]
1F	1f	1a	1cc
=60	=60	=60	=60
1G	1d	1g	1b-y
1D	1f	1a	1dd
=61	=61	=61	=61
0E-X	2e-X	0g	2cc
.	2.d	.	2b-y
.	.	.	2a
.	4c	.	.
.	4c	.	2g
.	4B-y	.	.
=62	=62	=62	=62
00D	00d	00a	00f#X
=63||	=63||	=63||	=63||
!!section: Secunda pars: Favus distillans
!!!OMD: Secunda pars: Favus distillans
*M2/1	*M2/1	*M2/1	*M2/1
*met(C|)	*met(C|)	*met(C|)	*met(C|)
0r	0r	1r	1dd
.	.	1g	2dd
.	.	.	2dd
=64	=64	=64	=64
0r	0r	2g	1.ee
.	.	2g	.
.	.	[1a	.
.	.	.	4dd
.	.	.	4cc
=65	=65	=65	=65
0r	0r	2a]	1.ff
.	.	4g	.
.	.	4f	.
.	.	[1b-y	.
.	.	.	2ee
=66	=66	=66	=66
0r	0r	2b-]	2dd
.	.	2a	2cc
.	.	2g	4b-y
.	.	.	4a
.	.	2f	[2dd
=67	=67	=67	=67
0r	0r	1e	2dd]
.	.	.	2cc
.	.	4d	2.dd
.	.	4e	.
.	.	4f	.
.	.	4g	4b-y
=68	=68	=68	=68
0r	1r	4a	4cc
.	.	4d	4b-y
.	.	1g	4a
.	.	.	4g
.	1d	.	1a
.	.	2f#i	.
=69	=69	=69	=69
1G	2d	0g	1.b-y
.	2d	.	.
2G	[1e	.	.
2G	.	.	4a
.	.	.	4g
=70	=70	=70	=70
1.A	2e]	1r	1.cc
.	4d	.	.
.	4c	.	.
.	[1f	1cc	.
4G	.	.	4b-y
4F	.	.	4a
=71	=71	=71	=71
1.B-y	2f]	2.b-y	0dd
.	2e	.	.
.	.	4a	.
.	2d	2g	.
2A	2c	2f	.
=72	=72	=72	=72
2G	4B-y	2e	2r
.	4A	.	.
2F	1d	2d	2dd
1E	.	1g	2ee
.	2c#i	.	2ee
=73	=73	=73	=73
[0D	[0d	2.f	2.ff
.	.	4g	4ee
.	.	4a	2dd
.	.	4b-y	.
.	.	[2a	2cc
=74	=74	=74	=74
0D_	0d_	4a]	2.b-y
.	.	4g	.
.	.	1dd	.
.	.	.	8aL
.	.	.	8gJ
.	.	.	2b-y
.	.	2cc	[2a
=75	=75	=75	=75
0D]	0d]	2b-y	4a]
.	.	.	4g
.	.	4a	1g
.	.	4g	.
.	.	1a	.
.	.	.	2f#i
=76	=76	=76	=76
[0G	[0d	1b-y	0g
.	.	1r	.
=77	=77	=77	=77
0G]	0d]	0g	1r
.	.	.	1b-y
=78	=78	=78	=78
0C	0c	0e	2.cc
.	.	.	4b-y
.	.	.	2a
.	.	.	2g
=79	=79	=79	=79
0D	2A	[0d	1f
.	2d	.	.
.	2d	.	2r
.	2d	.	2dd
=80	=80	=80	=80
2r	2.f	1d]	2dd
2D	.	.	2dd
.	4e	.	.
2D	2.d	2r	2.ff
2D	.	2a	.
.	8cL	.	8eeL
.	8B-yJ	.	8ddJ
=81	=81	=81	=81
2.F	1A	2a	2cc
.	.	2a	2dd
8EL	.	.	.
8DJ	.	.	.
2C	1r	2.cc	2ee
2D	.	.	[2dd
.	.	8b-yL	.
.	.	8aJ	.
=82	=82	=82	=82
1E	1r	2g	2dd]
.	.	2a	2cc
1D	2r	2b-y	2.dd
.	2d	[2a	.
.	.	.	4cc
=83	=83	=83	=83
2r	2d	2a]	4b-y
.	.	.	4a
2G	2d	2g	2b-y
2F	2.f	2a	2cc
2G	.	2b-y	2g
.	8eL	.	.
.	8dJ	.	.
=84	=84	=84	=84
2A	2c	2a	2f
2B-y	2d	1dd	2g
1A	1e	.	1a
.	.	2cc#i	.
=85	=85	=85	=85
2r	1d	0dd	0a
2d	.	.	.
2.d	2r	.	.
.	2d	.	.
4c	.	.	.
=86	=86	=86	=86
2B-y	2.d	2r	1r
2A	.	2dd	.
.	4c	.	.
1G	2B-y	2.dd	2r
.	2A	.	2dd
.	.	4cc	.
=87	=87	=87	=87
2r	2G	2b-y	2.dd
2D	2F	2.a	.
.	.	.	4cc
2E	1G	.	2b-y
.	.	4g	.
2E	.	[2g	4a
.	.	.	4g
=88	=88	=88	=88
1D	1A	2g]	1dd
.	.	2f#i	.
2.G	4G	[1g	1b-y
.	4A	.	.
.	4B-y	.	.
4A	4c	.	.
=89	=89	=89	=89
4B-y	2d	1g]	1r
4G	.	.	.
1c	1e	.	.
.	.	1r	1g
4B-y	4d	.	.
4A	4c	.	.
=90	=90	=90	=90
2B-y	2d	1r	2g
2c	2e	.	2g
2B-y	2f	1d	1dd
2G	[2g	.	.
=91	=91	=91	=91
1B-y	2g]	2d	1dd
.	2d	2d	.
2A	2e	1a	1cc
[2F	[2f	.	.
=92	=92	=92	=92
2F]	4f]	1a	2cc
.	4e	.	.
2F	4d	.	2cc
.	4c	.	.
[1G	[1B-y	1g	2ee-X
.	.	.	[2dd
=93	=93	=93	=93
1G]	1B-]	2g	4dd]
.	.	.	4cc
.	.	2g	4b-y
.	.	.	4a
1r	1r	[1b-y	2g
.	.	.	[2dd
=94	=94	=94	=94
0r	1G	2b-]	2dd]
.	.	2a	2cc
.	2G	1g	1b-y
.	2G	.	.
=95	=95	=95	=95
1D	1d	1f	[0a
2D	1d	1r	.
2D	.	.	.
=96	=96	=96	=96
1A	1c	1e	0a]
1A	2c	1f	.
.	2c	.	.
=97	=97	=97	=97
1G	2e-X	1g	0r
.	2.d	.	.
2G	.	[1g	.
.	4c	.	.
2G	4B-y	.	.
.	4A	.	.
=98	=98	=98	=98
1.B-y	2G	2g]	1r
.	1d	2f	.
.	.	1f	2r
2A	2c	.	2f
=99	=99	=99	=99
1G	2d	1g	2.b-y
.	2e	.	.
.	.	.	4cc
1F	1f	1a	2dd
.	.	.	[2cc
=100	=100	=100	=100
0G	0d	0g	2cc]
.	.	.	4bnXi
.	.	.	4a
.	.	.	1bni
=101	=101	=101	=101
1C	[0c	1e	1cc
1r	.	1r	1r
=102	=102	=102	=102
1F	0c]	1f	1a
2F	.	2f	2a
2F	.	2f	2a
=103	=103	=103	=103
0G	1r	1.d	1.b-y
.	1B-y	.	.
.	.	2e	4a
.	.	.	4g
=104	=104	=104	=104
1F	2c	1f	1a
.	2c	.	.
1r	1d	1r	1r
=105	=105	=105	=105
1F	1c	1f	1a
[1F	1r	[1f	[1cc
=106	=106	=106	=106
2F]	1A	2f]	2cc]
2F	.	2f	2cc
1F	1A	[1f	1cc
=107	=107	=107	=107
0F	2A	0f]	0cc
.	2A	.	.
.	1A	.	.
=108	=108	=108	=108
0C	1G	1e	0cc
.	1r	1g	.
=109	=109	=109	=109
0r	0g	0b-y	1r
.	.	.	[1dd
=110	=110	=110	=110
0r	0f	0a	1dd]
.	.	.	1cc
=111	=111	=111	=111
0r	1c	1g	1cc
.	[1f	[1a	1dd
=112	=112	=112	=112
0r	1f]	1a]	1cc
.	1d	1f	1dd
=113	=113	=113	=113
0r	1.e-X	1.g	1b-y
.	.	.	1cc
.	4d	2a	.
.	4c	.	.
=114	=114	=114	=114
0r	0B-y	0b-y	0dd
=115	=115	=115	=115
0D	0f	1r	1r
.	.	1a	1dd
=116	=116	=116	=116
1D	1f	1a	1dd
1D	1f	1a	1dd
=117	=117	=117	=117
1A	1e	1a	1cc
1A	1e	1cc	1cc
=118	=118	=118	=118
1.B-y	1.d	1.b-y	1ff
.	.	.	1ff
2F	2c	2a	.
=119	=119	=119	=119
0G	0B-y	0g	0dd
=120	=120	=120	=120
0D	1.A	1f	[0dd
.	.	2r	.
.	4G	2d	.
.	4A	.	.
=121	=121	=121	=121
2r	2B-y	2d	0dd]
2D	2A	2d	.
2D	2r	2.f	.
2D	2A	.	.
.	.	4g	.
=122	=122	=122	=122
2.F	2A	1a	2r
.	2A	.	2a
4G	.	.	.
[1A	2.c	2r	2a
.	.	2a	2a
.	4d	.	.
=123	=123	=123	=123
1A]	0e	2a	2.cc
.	.	2a	.
.	.	.	4dd
1r	.	1g	[1ee
=124	=124	=124	=124
2r	2r	1c	1ee]
2A	2c	.	.
2A	2e	2r	2r
2A	2e	2A	2cc
=125	=125	=125	=125
1G	0g	2B-y	2dd
.	.	2B-y	2dd
1C	.	1c	1ee
=126	=126	=126	=126
1r	2f	2d	1a
.	2d	2f	.
2r	2e	2g	2r
2D	[2d	2a	2f
=127	=127	=127	=127
2E	4d]	2g	2g
.	4c	.	.
2F	1c	1f	2a
1G	.	.	1b-y
.	2B-y	2e	.
=128	=128	=128	=128
2F	2.c	2f	2a
2C	.	2e	2.g
.	4B-y	.	.
1D	2A	2d	.
.	.	.	4f
.	2B-y	2B-y	[2f
=129	=129	=129	=129
2C	2G	2c	2f]
2c	2c	2e	2e
2B-y	2d	2d	1f
2A	[2c	[2f	.
=130	=130	=130	=130
1G	2c]	2f]	2g
.	2B-y	2e	2b-y
[1F	[1c	[1f	[1a
=131	=131	=131	=131
1F]	1c]	0f]	0a_
1r	1r	.	.
=132	=132	=132	=132
1F	1f	0r	1a]
[1G	[1d	.	1r
=133	=133	=133	=133
1G]	1d]	1g	1b-y
[1C	[1c	[1e	[1cc
=134	=134	=134	=134
1C]	1c]	1e]	1cc]
1r	1F	[1f	[1a
=135	=135	=135	=135
1F	1f	1f]	1a]
[1G	[1d	1r	1r
=136	=136	=136	=136
1G]	1d]	1g	1b-y
[1C	[1c	[1e	[1cc
=137	=137	=137	=137
1C]	1c]	1e]	1cc]
[1c	[1F	[1f	[1a
=138	=138	=138	=138
1c]	1F]	1f]	1a]
1r	1r	1r	1r
=139	=139	=139	=139
1G	1B-y	1g	0d
1F	1A	1a	.
=140	=140	=140	=140
1G	1B-y	1g	0d
1D	1A	1f	.
=141	=141	=141	=141
1G	1G	[0g	1d
[1C	[1c	.	[1e
=142	=142	=142	=142
1C]	1c]	1g]	1e]
[1D	[1A	[1f	1d
=143	=143	=143	=143
1D]	1A]	1f]	2r
.	.	.	2dd
2.B-y	2.G	1r	2.dd
4A	4A	.	4cc
=144	=144	=144	=144
2G	2B-y	0r	2b-y
2F	2c	.	1a
2E	4c	.	.
.	4B-y	.	.
2E	2G	.	[2g
=145	=145	=145	=145
1D	1A	2r	2g]
.	.	2dd	2f#i
1G	1G	2.dd	2g
.	.	.	2dd
.	.	4cc	.
=146	=146	=146	=146
2r	2.d	2b-y	1ff
2D	.	1a	.
.	4c	.	.
2E-X	2B-y	.	1ee
2C	2c	[2g	.
=147	=147	=147	=147
1D	1A	2g]	1dd
.	.	2f#i	.
2.d	4G	1g	1b-y
.	4A	.	.
.	4B-y	.	.
4c	4c	.	.
=148	=148	=148	=148
4B-y	4d	0r	0r
4G	4e	.	.
2.A	2.f	.	.
4G	4e	.	.
4F	[2d	.	.
4D	.	.	.
=149	=149	=149	=149
1E	2d]	1r	1r
.	2c#i	.	.
1D	1d	1d	1ff
=150	=150	=150	=150
0r	0r	2d	2ff
.	.	2e	2ee
.	.	2f	2dd
.	.	2g	2dd
=151	=151	=151	=151
0r	0r	2a	2cc
.	.	2b-y	2b-y
.	.	2cc	2a
.	.	2dd	2g
=152	=152	=152	=152
1r	1r	2dd	2f
.	.	2cc	2e
1D	1f	1dd	1d
=153	=153	=153	=153
2D	2f	0r	0r
2E	2e	.	.
2F	2d	.	.
2G	2d	.	.
=154	=154	=154	=154
2A	2c	0r	0r
2B-y	2B-y	.	.
2c	2A	.	.
2d	2G	.	.
=155	=155	=155	=155
2d	2F	0r	0r
2c	2E	.	.
1d	1D	.	.
=156	=156	=156	=156
0r	1d	1r	1dd
.	2e-X	1g	2b-y
.	2e-i	.	2cc
=157	=157	=157	=157
0r	2d	1a	2dd
.	2d	.	2dd
.	2e-i	1g	2b-y
.	2e-i	.	2cc
=158	=158	=158	=158
1r	1d	0a	2dd
.	.	.	1dd
1A	1e-i	.	.
.	.	.	2cc
=159	=159	=159	=159
2B-y	1d	2f	1dd
2B-y	.	2g	.
2A	1r	1a	2r
2A	.	.	2cc
=160	=160	=160	=160
2B-y	1d	2f	2dd
2B-y	.	2g	2dd
1A	2e	2a	2cc
.	2e	[2a	2cc
=161	=161	=161	=161
1B-y	1d	2a]	2dd
.	.	2g	1dd
1A	1e	1a	.
.	.	.	2cc#i
=162	=162	=162	=162
1D	1d	2r	2dd
.	.	2dd	2.b-y
2E	1G	2b-y	.
.	.	.	4a
2E	.	2cc	2g
=163	=163	=163	=163
2D	2A	2dd	1f
2D	2A	2dd	.
2E	2G	2b-y	2r
2E	2G	2cc	2g
=164	=164	=164	=164
1D	2A	2dd	2f
.	2F	1dd	2.a
1E	1G	.	.
.	.	.	4g
.	.	2cc#i	[2g
=165	=165	=165	=165
1D	1A	0dd	2g]
.	.	.	2f#i
1G	1G	.	1g
=166	=166	=166	=166
1r	1r	1r	1r
1G	1B-y	[1d	1g
=167	=167	=167	=167
1F	1A	1d]	1a
1G	1B-y	1d	1g
=168	=168	=168	=168
1D	1A	1d	1f
[1G	[1G	[1d	[1g
=169	=169	=169	=169
1G]	2G]	1d]	1g]
.	4A	.	.
.	4B-y	.	.
[1C	[1c	[1e	[1g
=170	=170	=170	=170
1C]	2c]	1e]	1g]
.	2c	.	.
[1D	[1A	[1d	[1f
=171	=171	=171	=171
1D]	1A]	1d]	1f]
[1Gl	[1Gl	[1dl	[1gl
=172	=172	=172	=172
00G]	00G]	00d]	00g]
==	==	==	==
*-	*-	*-	*-
!!!system-decoration: [*]
!!!RDF**kern: i = editorial accidental
!!!RDF**kern: l = terminal long
!!!ENC: Benjamin Ory
!!!END: 2023/01/17
!!!EED: Benjamin Ory
!!!EEV: 2023/01/17
!!!YEC: Copyright 2023 Benjamin Ory, All Rights Reserved
!!!ONB: Translated from MusicXML on 2023/01/17